assets/Camera with flash/Flat/camera_with_flash_flat.svg

<svg width="32" height="32" viewBox="0 0 32 32" fill="none" xmlns="http://www.w3.org/2000/svg">
<path d="M21.5 11C21.2239 11 21 11.2239 21 11.5V13H27V11.5C27 11.2239 26.7761 11 26.5 11H21.5Z" fill="#D3D3D3"/>
<path d="M2 14C2 12.8954 2.89543 12 4 12H28C29.1046 12 30 12.8954 30 14V16.5L28 22L30 27.5V28C30 29.1046 29.1046 30 28 30H4C2.89543 30 2 29.1046 2 28V27.5L4.5 22L2 16.5V14Z" fill="#E6E6E6"/>
<path d="M2 16.5C2 16.2239 2.22386 16 2.5 16H29.5C29.7761 16 30 16.2239 30 16.5V27.5C30 27.7761 29.7761 28 29.5 28H2.5C2.22386 28 2 27.7761 2 27.5V16.5Z" fill="#533566"/>
<path d="M22 22C22 25.3137 19.3137 28 16 28C12.6863 28 10 25.3137 10 22C10 18.6863 12.6863 16 16 16C19.3137 16 22 18.6863 22 22Z" fill="#321B41"/>
<path d="M16 27C18.7614 27 21 24.7614 21 22C21 19.2386 18.7614 17 16 17C13.2386 17 11 19.2386 11 22C11 24.7614 13.2386 27 16 27ZM16 29C12.134 29 9 25.866 9 22C9 18.134 12.134 15 16 15C19.866 15 23 18.134 23 22C23 25.866 19.866 29 16 29Z" fill="#9B9B9B"/>
<path d="M18.5 22C18.5 23.3807 17.3807 24.5 16 24.5C14.6193 24.5 13.5 23.3807 13.5 22C13.5 20.6193 14.6193 19.5 16 19.5C17.3807 19.5 18.5 20.6193 18.5 22Z" fill="#433B6B"/>
<path d="M19.0825 19.875C19.4967 20.5924 19.4448 21.3979 18.9665 21.674C18.4882 21.9501 17.7647 21.5924 17.3505 20.875C16.9363 20.1575 16.9882 19.3521 17.4665 19.0759C17.9448 18.7998 18.6683 19.1575 19.0825 19.875Z" fill="white"/>
<path d="M7.19497 7.59245C7.59464 7.05009 8.40536 7.05009 8.80503 7.59244L10.2436 9.54461C10.3032 9.62544 10.3746 9.69684 10.4554 9.75641L12.4076 11.195C12.9499 11.5946 12.9499 12.4054 12.4076 12.805L10.4554 14.2436C10.3746 14.3032 10.3032 14.3746 10.2436 14.4554L8.80503 16.4076C8.40536 16.9499 7.59464 16.9499 7.19497 16.4076L5.75641 14.4554C5.69684 14.3746 5.62544 14.3032 5.54461 14.2436L3.59245 12.805C3.05009 12.4054 3.05009 11.5946 3.59244 11.195L5.54461 9.75641C5.62544 9.69684 5.69684 9.62544 5.75641 9.54461L7.19497 7.59245Z" fill="#FCD53F"/>
</svg>

<svg xmlns="http://www.w3.org/2000/svg" width="32" height="32" fill="none"><path fill="#D3D3D3" d="M21.5 11a.5.5 0 0 0-.5.5V13h6v-1.5a.5.5 0 0 0-.5-.5h-5Z"/><path fill="#E6E6E6" d="M2 14a2 2 0 0 1 2-2h24a2 2 0 0 1 2 2v2.5L28 22l2 5.5v.5a2 2 0 0 1-2 2H4a2 2 0 0 1-2-2v-.5L4.5 22 2 16.5V14Z"/><path fill="#533566" d="M2 16.5a.5.5 0 0 1 .5-.5h27a.5.5 0 0 1 .5.5v11a.5.5 0 0 1-.5.5h-27a.5.5 0 0 1-.5-.5v-11Z"/><path fill="#321B41" d="M22 22a6 6 0 1 1-12 0 6 6 0 0 1 12 0Z"/><path fill="#9B9B9B" d="M16 27a5 5 0 1 0 0-10 5 5 0 0 0 0 10Zm0 2a7 7 0 1 1 0-14 7 7 0 0 1 0 14Z"/><path fill="#433B6B" d="M18.5 22a2.5 2.5 0 1 1-5 0 2.5 2.5 0 0 1 5 0Z"/><path fill="#fff" d="M19.082 19.875c.415.717.363 1.523-.116 1.799-.478.276-1.201-.082-1.616-.799-.414-.718-.362-1.523.116-1.8.479-.275 1.202.082 1.616.8Z"/><path fill="#FCD53F" d="M7.195 7.592a1 1 0 0 1 1.61 0l1.439 1.953c.06.08.13.152.211.211l1.953 1.439a1 1 0 0 1 0 1.61l-1.953 1.439c-.08.06-.152.13-.211.211l-1.439 1.953a1 1 0 0 1-1.61 0l-1.439-1.953a1.002 1.002 0 0 0-.211-.211l-1.953-1.439a1 1 0 0 1 0-1.61l1.953-1.439a1 1 0 0 0 .211-.211l1.439-1.953Z"/></svg>
